Numix/16/status/user-typing.svg

<?xml version="1.0" encoding="UTF-8" standalone="no"?>
<svg
   xmlns:dc="http://purl.org/dc/elements/1.1/"
   xmlns:cc="http://creativecommons.org/ns#"
   xmlns:rdf="http://www.w3.org/1999/02/22-rdf-syntax-ns#"
   xmlns:svg="http://www.w3.org/2000/svg"
   xmlns="http://www.w3.org/2000/svg"
   xmlns:sodipodi="http://sodipodi.sourceforge.net/DTD/sodipodi-0.dtd"
   xmlns:inkscape="http://www.inkscape.org/namespaces/inkscape"
   width="16"
   viewBox="0 0 16 16"
   height="16"
   id="svg2"
   version="1.1"
   inkscape:version="0.91 r"
   sodipodi:docname="user-typing.svg">
  <metadata
     id="metadata18">
    <rdf:RDF>
      <cc:Work
         rdf:about="">
        <dc:format>image/svg+xml</dc:format>
        <dc:type
           rdf:resource="http://purl.org/dc/dcmitype/StillImage" />
        <dc:title />
      </cc:Work>
    </rdf:RDF>
  </metadata>
  <sodipodi:namedview
     pagecolor="#ffffff"
     bordercolor="#666666"
     borderopacity="1"
     objecttolerance="10"
     gridtolerance="10"
     guidetolerance="10"
     inkscape:pageopacity="0"
     inkscape:pageshadow="2"
     inkscape:window-width="1920"
     inkscape:window-height="1056"
     id="namedview16"
     showgrid="true"
     inkscape:zoom="25.61084"
     inkscape:cx="3.1144112"
     inkscape:cy="5.7149586"
     inkscape:window-x="0"
     inkscape:window-y="24"
     inkscape:window-maximized="1"
     inkscape:current-layer="svg2">
    <inkscape:grid
       type="xygrid"
       id="grid2995" />
  </sodipodi:namedview>
  <defs
     id="defs4" />
  <g
     style="fill:#b2d863;fill-opacity:1"
     id="g3935">
    <path
       id="path2999-7"
       transform="translate(-3,-3)"
       d="m 11,3 c -4.418278,0 -8,3.1340067 -8,7 0,3.865993 3.581722,7 8,7 4.418278,0 8,-3.134007 8,-7 C 19,6.1340067 15.418278,3 11,3 Z M 7,8.9999999 c 0.5522847,0 1,0.4477153 1,1 C 8.0000001,10.552285 7.5522848,11 7,11 6.4477152,11 5.9999999,10.552285 6,9.9999999 c 0,-0.5522847 0.4477153,-1 1,-1 z m 4,0 c 0.552285,0 1,0.4477153 1,1 C 12,10.552285 11.552285,11 11,11 10.447715,11 9.9999999,10.552285 10,9.9999999 c 0,-0.5522847 0.447715,-1 1,-1 z m 4,0 c 0.552285,0 1,0.4477153 1,1 C 16,10.552285 15.552285,11 15,11 c -0.552285,0 -1,-0.447715 -1,-1.0000001 0,-0.5522847 0.447715,-1 1,-1 z"
       style="fill:#b2d863;fill-opacity:1;stroke:none"
       inkscape:connector-curvature="0"
       sodipodi:nodetypes="ssssssssssssssssssss" />
    <path
       style="fill:#b2d863;fill-opacity:1;stroke:none"
       d="M 8.3362186,12 14,16 13,10 Z"
       id="path3001-7"
       inkscape:connector-curvature="0"
       sodipodi:nodetypes="cccc" />
  </g>
</svg>

<svg xmlns="http://www.w3.org/2000/svg" viewBox="0 0 16 16">
 <g style="fill:#b2d863;fill-opacity:1">
  <path transform="translate(-3,-3)" d="m 11 3 c -4.418 0 -8 3.134 -8 7 0 3.866 3.582 7 8 7 4.418 0 8 -3.134 8 -7 c 0 -3.866 -3.582 -7 -8 -7 m -4 6 c 0.552 0 1 0.448 1 1 c 0 0.552 -0.448 1 -1 1 -0.552 0 -1 -0.448 -1 -1 c 0 -0.552 0.448 -1 1 -1 z m 4 0 c 0.552 0 1 0.448 1 1 c 0 0.552 -0.448 1 -1 1 -0.552 0 -1 -0.448 -1 -1 c 0 -0.552 0.448 -1 1 -1 z m 4 0 c 0.552 0 1 0.448 1 1 c 0 0.552 -0.448 1 -1 1 c -0.552 0 -1 -0.448 -1 -1 0 -0.552 0.448 -1 1 -1 z" style="stroke:none"/>
  <path d="m 8.336 12 5.664 4 -1 -6" style="stroke:none"/>
 </g>
</svg>
